X: 43311
T: Woods Of Kilkenny, The
R: hornpipe
M: 4/4
K: Dmajor
|:A|dAFA dfaf|gece dcBA|BGAF E2ef|gece dcBA|
dAFA dfaf|gece dcBA|dfaf bgec|d2dc d3:|
|:AG|FA (3AAA dA (3AAA|fdcd BAGF|Ee (3eee ge (3eee|dfaf dcBA
gbbg faaf|gece dcBA|dfaf bgec|d2dc d2:|

